report_00007_2020-12-11T15:55:29.892Z/network-rtt/comparison/line/7_vs_8.svg

<svg width="640" height="500" xmlns="http://www.w3.org/2000/svg" xmlns:xlink="http://www.w3.org/1999/xlink"><path fill="#fff" d="M0 0h640v500H0z"/><defs><path id="d" stroke-width=".222" stroke="currentColor" d="M-1-1h2v2h-2z"/><path id="b" stroke-width=".222" stroke="currentColor" d="M0-1.33l-1.33 2h2.66z"/><path id="f" stroke-width=".222" stroke="currentColor" d="M0 1.33L1.265.411.782-1.067l-1.564-.009-.483 1.487z"/><use xlink:href="#b" id="c" stroke="currentColor" transform="rotate(180)"/><use xlink:href="#d" id="e" stroke="currentColor" transform="rotate(45)"/><circle id="a" stroke-width=".222" stroke="currentColor" cx="0" cy="0" r="1"/></defs><g fill="none" color="#000" stroke="currentColor"><path stroke="#000" d="M62.2 416.7h9m543.8 0h-9"/><text transform="translate(53.9 420.6)" stroke="none" fill="#000" font-family="Arial" font-size="12" text-anchor="end"><tspan>0.05</tspan></text></g><g fill="none" color="#000" stroke="currentColor"><path stroke="#000" d="M62.2 330.3h9m543.8 0h-9"/><text transform="translate(53.9 334.2)" stroke="none" fill="#000" font-family="Arial" font-size="12" text-anchor="end"><tspan>0.1</tspan></text></g><g fill="none" color="#000" stroke="currentColor"><path stroke="#000" d="M62.2 243.9h9m543.8 0h-9"/><text transform="translate(53.9 247.8)" stroke="none" fill="#000" font-family="Arial" font-size="12" text-anchor="end"><tspan>0.15</tspan></text></g><g fill="none" color="#000" stroke="currentColor"><path stroke="#000" d="M62.2 157.5h9m543.8 0h-9"/><text transform="translate(53.9 161.4)" stroke="none" fill="#000" font-family="Arial" font-size="12" text-anchor="end"><tspan>0.2</tspan></text></g><g fill="none" color="#000" stroke="currentColor"><path stroke="#000" d="M62.2 71.1h9m543.8 0h-9"/><text transform="translate(53.9 75)" stroke="none" fill="#000" font-family="Arial" font-size="12" text-anchor="end"><tspan>0.25</tspan></text></g><g fill="none" color="#000" stroke="currentColor"><path stroke="#000" d="M62.2 446v-9m0-418.9v9"/><text transform="translate(62.2 467.9)" stroke="none" fill="#000" font-family="Arial" font-size="12" text-anchor="middle"><tspan>0</tspan></text></g><g fill="none" color="#000" stroke="currentColor"><path stroke="#000" d="M118 446v-9m0-418.9v9"/><text transform="translate(118 467.9)" stroke="none" fill="#000" font-family="Arial" font-size="12" text-anchor="middle"><tspan>10</tspan></text></g><g fill="none" color="#000" stroke="currentColor"><path stroke="#000" d="M173.9 446v-9m0-418.9v9"/><text transform="translate(173.9 467.9)" stroke="none" fill="#000" font-family="Arial" font-size="12" text-anchor="middle"><tspan>20</tspan></text></g><g fill="none" color="#000" stroke="currentColor"><path stroke="#000" d="M229.7 446v-9m0-418.9v9"/><text transform="translate(229.7 467.9)" stroke="none" fill="#000" font-family="Arial" font-size="12" text-anchor="middle"><tspan>30</tspan></text></g><g fill="none" color="#000" stroke="currentColor"><path stroke="#000" d="M285.6 446v-9m0-418.9v9"/><text transform="translate(285.6 467.9)" stroke="none" fill="#000" font-family="Arial" font-size="12" text-anchor="middle"><tspan>40</tspan></text></g><g fill="none" color="#000" stroke="currentColor"><path stroke="#000" d="M341.4 446v-9m0-418.9v9"/><text transform="translate(341.4 467.9)" stroke="none" fill="#000" font-family="Arial" font-size="12" text-anchor="middle"><tspan>50</tspan></text></g><g fill="none" color="#000" stroke="currentColor"><path stroke="#000" d="M397.2 446v-9m0-418.9v9"/><text transform="translate(397.2 467.9)" stroke="none" fill="#000" font-family="Arial" font-size="12" text-anchor="middle"><tspan>60</tspan></text></g><g fill="none" color="#000" stroke="currentColor"><path stroke="#000" d="M453.1 446v-9m0-418.9v9"/><text transform="translate(453.1 467.9)" stroke="none" fill="#000" font-family="Arial" font-size="12" text-anchor="middle"><tspan>70</tspan></text></g><g fill="none" color="#000" stroke="currentColor"><path stroke="#000" d="M508.9 446v-9m0-418.9v9"/><text transform="translate(508.9 467.9)" stroke="none" fill="#000" font-family="Arial" font-size="12" text-anchor="middle"><tspan>80</tspan></text></g><g fill="none" color="#000" stroke="currentColor"><path stroke="#000" d="M564.7 446v-9m0-418.9v9"/><text transform="translate(564.7 467.9)" stroke="none" fill="#000" font-family="Arial" font-size="12" text-anchor="middle"><tspan>90</tspan></text></g><path stroke="#000" d="M62.2 18.1V446H615V18.1H62.2z" fill="none" color="#000"/><text transform="translate(279.8 485.9)" stroke="none" fill="#000" font-family="Arial" font-size="12" text-anchor="end" color="#000"><tspan>pages+cached+noexternal+nosvg</tspan></text><path stroke="#9400D3" d="M288.1 482h42.2M62.2 385.6l5.6.2 5.6 7.4 5.6-27.7 5.5 13.7 5.6-23 5.6 21.8 5.6 13.6 5.6-35.2 5.6 25.9 5.5 15.4 5.6-323.9 5.6 304.7 5.6-66.4 5.6-60.4 5.6 94.5 5.5 43.4 5.6-40 5.6 37 5.6 46.7 5.6-55.1 5.6 21.4 5.5 3.3 5.6-27.9 5.6 19.2 5.6-10.7 5.6-4.8 5.6-266.5 5.5 300.3 5.6 4.4 5.6 1.9 5.6-61.7 5.6 38.3 5.6-180.5 5.6 181.4 5.5 18.5 5.6-350.3 5.6 275.5 5.6 51.3 5.6 17.1 5.6-41 5.5 14.6 5.6 11.4 5.6 4.8 5.6-29.5 5.6 34.5 5.6-1.7 5.5-9.5 5.6-8.1 5.6-32.5 5.6 32.1 5.6 10.4 5.6-14.7 5.5 17.8 5.6-.5 5.6-18.5 5.6 16.1 5.6-23.2 5.6 34 5.5 7 5.6-20.3 5.6 18.3 5.6-25.5 5.6 10.2 5.6-4.2 5.5-9.5 5.6 14.2 5.6-10.7 5.6-14.9 5.6 4.5 5.6 63.8 5.6-41.7 5.5-12.8 5.6-7.4 5.6-349.6 5.6 376.4 5.6-47.5 5.6 31.8 5.5-52.6 5.6 27.5 5.6-48.9 5.6 73.4 5.6.6 5.6 5 5.5-11.9 5.6-17.7 5.6 26.6 5.6-7 5.6 11.7 5.6-48 5.5 21.2 5.6 39.2 5.6-341.6 5.6 321.3 5.6 7.9 5.6-34.7 5.5-51.7 5.6 101.6 5.6-54.9 5.6 24" fill="none" color="#000"/><text transform="translate(579.3 485.9)" stroke="none" fill="#000" font-family="Arial" font-size="12" text-anchor="end" color="#000"><tspan>pages+cached+noexternal+noimg</tspan></text><path stroke="#009E73" d="M587.6 482h42.2M62.2 397.5l5.6 11.2 5.6-95 5.6 76 5.5-28.8 5.6 9 5.6 4.1 5.6 8.1 5.6-12.2 5.6 24.2 5.5-17.5 5.6 15.2 5.6 2.8 5.6-11.6 5.6 3.8 5.6 2.2 5.5-6.2 5.6-30 5.6 31.1 5.6-1.1 5.6-1.2 5.6 2.3 5.5 25.4 5.6-15.8 5.6.4 5.6-5.6 5.6 7.1 5.6-13.8 5.5 4.8 5.6 17.3 5.6-17.6 5.6-19.2 5.6 11.4 5.6 44.4 5.6-26.7 5.5-200.5 5.6 175.4 5.6 15.5 5.6-4.6L280 417l5.6-56.3 5.5 35.1h5.6l5.6 18.6 5.6-31.4 5.6 6 5.6-27.1 5.5 1.7 5.6 42.7 5.6-182.1 5.6 141 5.6 10.5 5.6 14.4 5.5-14.4 5.6-64.8 5.6 4.9 5.6 66.8 5.6 2.3 5.6-26.8 5.5 33.7 5.6 3.6 5.6-43 5.6-32.7 5.6 79.7 5.6 6.7 5.5-13.9 5.6-11.1 5.6-17.6 5.6-91.4 5.6 67.5 5.6 56.7 5.6-41.1 5.5 57.9 5.6-27 5.6 29.6 5.6-28.4 5.6 5.9 5.6-16.3 5.5 20.1 5.6-32.3 5.6 43 5.6-26.1 5.6 2.1 5.6-5 5.5-150.7 5.6 128 5.6 59.8 5.6-14.1 5.6-88.3 5.6 80 5.5-17.1 5.6.6 5.6 13.2 5.6 13.3 5.6-10.4 5.6 5 5.5-316.7 5.6 318.3 5.6-29 5.6 20.9" fill="none" color="#000"/><g fill="none" color="#000" stroke="currentColor"><path stroke="#000" d="M62.2 18.1V446H615V18.1H62.2z"/></g></svg>

<?xml version="1.0" encoding="utf-8"  standalone="no"?>
<svg 
 width="640" height="500"
 viewBox="0 0 640 500"
 xmlns="http://www.w3.org/2000/svg"
 xmlns:xlink="http://www.w3.org/1999/xlink"
>

<title>Gnuplot</title>
<desc>Produced by GNUPLOT 5.4 patchlevel 0 </desc>

<g id="gnuplot_canvas">

<rect x="0" y="0" width="640" height="500" fill="#ffffff"/>
<defs>

	<circle id='gpDot' r='0.5' stroke-width='0.5' stroke='currentColor'/>
	<path id='gpPt0' stroke-width='0.222' stroke='currentColor' d='M-1,0 h2 M0,-1 v2'/>
	<path id='gpPt1' stroke-width='0.222' stroke='currentColor' d='M-1,-1 L1,1 M1,-1 L-1,1'/>
	<path id='gpPt2' stroke-width='0.222' stroke='currentColor' d='M-1,0 L1,0 M0,-1 L0,1 M-1,-1 L1,1 M-1,1 L1,-1'/>
	<rect id='gpPt3' stroke-width='0.222' stroke='currentColor' x='-1' y='-1' width='2' height='2'/>
	<rect id='gpPt4' stroke-width='0.222' stroke='currentColor' fill='currentColor' x='-1' y='-1' width='2' height='2'/>
	<circle id='gpPt5' stroke-width='0.222' stroke='currentColor' cx='0' cy='0' r='1'/>
	<use xlink:href='#gpPt5' id='gpPt6' fill='currentColor' stroke='none'/>
	<path id='gpPt7' stroke-width='0.222' stroke='currentColor' d='M0,-1.33 L-1.33,0.67 L1.33,0.67 z'/>
	<use xlink:href='#gpPt7' id='gpPt8' fill='currentColor' stroke='none'/>
	<use xlink:href='#gpPt7' id='gpPt9' stroke='currentColor' transform='rotate(180)'/>
	<use xlink:href='#gpPt9' id='gpPt10' fill='currentColor' stroke='none'/>
	<use xlink:href='#gpPt3' id='gpPt11' stroke='currentColor' transform='rotate(45)'/>
	<use xlink:href='#gpPt11' id='gpPt12' fill='currentColor' stroke='none'/>
	<path id='gpPt13' stroke-width='0.222' stroke='currentColor' d='M0,1.330 L1.265,0.411 L0.782,-1.067 L-0.782,-1.076 L-1.265,0.411 z'/>
	<use xlink:href='#gpPt13' id='gpPt14' fill='currentColor' stroke='none'/>
	<filter id='textbox' filterUnits='objectBoundingBox' x='0' y='0' height='1' width='1'>
	  <feFlood flood-color='#FFFFFF' flood-opacity='1' result='bgnd'/>
	  <feComposite in='SourceGraphic' in2='bgnd' operator='atop'/>
	</filter>
	<filter id='greybox' filterUnits='objectBoundingBox' x='0' y='0' height='1' width='1'>
	  <feFlood flood-color='lightgrey' flood-opacity='1' result='grey'/>
	  <feComposite in='SourceGraphic' in2='grey' operator='atop'/>
	</filter>
</defs>
<g fill="none" color="#FFFFFF" stroke="black" stroke-width="1.00" stroke-linecap="butt" stroke-linejoin="miter">
</g>
<g fill="none" color="black" stroke="currentColor" stroke-width="1.00" stroke-linecap="butt" stroke-linejoin="miter">
	<path stroke='black'  d='M62.2,416.7 L71.2,416.7 M615.0,416.7 L606.0,416.7  '/>	<g transform="translate(53.9,420.6)" stroke="none" fill="black" font-family="Arial" font-size="12.00"  text-anchor="end">
		<text><tspan font-family="Arial" > 0.05</tspan></text>
	</g>
</g>
<g fill="none" color="black" stroke="currentColor" stroke-width="1.00" stroke-linecap="butt" stroke-linejoin="miter">
	<path stroke='black'  d='M62.2,330.3 L71.2,330.3 M615.0,330.3 L606.0,330.3  '/>	<g transform="translate(53.9,334.2)" stroke="none" fill="black" font-family="Arial" font-size="12.00"  text-anchor="end">
		<text><tspan font-family="Arial" > 0.1</tspan></text>
	</g>
</g>
<g fill="none" color="black" stroke="currentColor" stroke-width="1.00" stroke-linecap="butt" stroke-linejoin="miter">
	<path stroke='black'  d='M62.2,243.9 L71.2,243.9 M615.0,243.9 L606.0,243.9  '/>	<g transform="translate(53.9,247.8)" stroke="none" fill="black" font-family="Arial" font-size="12.00"  text-anchor="end">
		<text><tspan font-family="Arial" > 0.15</tspan></text>
	</g>
</g>
<g fill="none" color="black" stroke="currentColor" stroke-width="1.00" stroke-linecap="butt" stroke-linejoin="miter">
	<path stroke='black'  d='M62.2,157.5 L71.2,157.5 M615.0,157.5 L606.0,157.5  '/>	<g transform="translate(53.9,161.4)" stroke="none" fill="black" font-family="Arial" font-size="12.00"  text-anchor="end">
		<text><tspan font-family="Arial" > 0.2</tspan></text>
	</g>
</g>
<g fill="none" color="black" stroke="currentColor" stroke-width="1.00" stroke-linecap="butt" stroke-linejoin="miter">
	<path stroke='black'  d='M62.2,71.1 L71.2,71.1 M615.0,71.1 L606.0,71.1  '/>	<g transform="translate(53.9,75.0)" stroke="none" fill="black" font-family="Arial" font-size="12.00"  text-anchor="end">
		<text><tspan font-family="Arial" > 0.25</tspan></text>
	</g>
</g>
<g fill="none" color="black" stroke="currentColor" stroke-width="1.00" stroke-linecap="butt" stroke-linejoin="miter">
	<path stroke='black'  d='M62.2,446.0 L62.2,437.0 M62.2,18.1 L62.2,27.1  '/>	<g transform="translate(62.2,467.9)" stroke="none" fill="black" font-family="Arial" font-size="12.00"  text-anchor="middle">
		<text><tspan font-family="Arial" > 0</tspan></text>
	</g>
</g>
<g fill="none" color="black" stroke="currentColor" stroke-width="1.00" stroke-linecap="butt" stroke-linejoin="miter">
	<path stroke='black'  d='M118.0,446.0 L118.0,437.0 M118.0,18.1 L118.0,27.1  '/>	<g transform="translate(118.0,467.9)" stroke="none" fill="black" font-family="Arial" font-size="12.00"  text-anchor="middle">
		<text><tspan font-family="Arial" > 10</tspan></text>
	</g>
</g>
<g fill="none" color="black" stroke="currentColor" stroke-width="1.00" stroke-linecap="butt" stroke-linejoin="miter">
	<path stroke='black'  d='M173.9,446.0 L173.9,437.0 M173.9,18.1 L173.9,27.1  '/>	<g transform="translate(173.9,467.9)" stroke="none" fill="black" font-family="Arial" font-size="12.00"  text-anchor="middle">
		<text><tspan font-family="Arial" > 20</tspan></text>
	</g>
</g>
<g fill="none" color="black" stroke="currentColor" stroke-width="1.00" stroke-linecap="butt" stroke-linejoin="miter">
	<path stroke='black'  d='M229.7,446.0 L229.7,437.0 M229.7,18.1 L229.7,27.1  '/>	<g transform="translate(229.7,467.9)" stroke="none" fill="black" font-family="Arial" font-size="12.00"  text-anchor="middle">
		<text><tspan font-family="Arial" > 30</tspan></text>
	</g>
</g>
<g fill="none" color="black" stroke="currentColor" stroke-width="1.00" stroke-linecap="butt" stroke-linejoin="miter">
	<path stroke='black'  d='M285.6,446.0 L285.6,437.0 M285.6,18.1 L285.6,27.1  '/>	<g transform="translate(285.6,467.9)" stroke="none" fill="black" font-family="Arial" font-size="12.00"  text-anchor="middle">
		<text><tspan font-family="Arial" > 40</tspan></text>
	</g>
</g>
<g fill="none" color="black" stroke="currentColor" stroke-width="1.00" stroke-linecap="butt" stroke-linejoin="miter">
	<path stroke='black'  d='M341.4,446.0 L341.4,437.0 M341.4,18.1 L341.4,27.1  '/>	<g transform="translate(341.4,467.9)" stroke="none" fill="black" font-family="Arial" font-size="12.00"  text-anchor="middle">
		<text><tspan font-family="Arial" > 50</tspan></text>
	</g>
</g>
<g fill="none" color="black" stroke="currentColor" stroke-width="1.00" stroke-linecap="butt" stroke-linejoin="miter">
	<path stroke='black'  d='M397.2,446.0 L397.2,437.0 M397.2,18.1 L397.2,27.1  '/>	<g transform="translate(397.2,467.9)" stroke="none" fill="black" font-family="Arial" font-size="12.00"  text-anchor="middle">
		<text><tspan font-family="Arial" > 60</tspan></text>
	</g>
</g>
<g fill="none" color="black" stroke="currentColor" stroke-width="1.00" stroke-linecap="butt" stroke-linejoin="miter">
	<path stroke='black'  d='M453.1,446.0 L453.1,437.0 M453.1,18.1 L453.1,27.1  '/>	<g transform="translate(453.1,467.9)" stroke="none" fill="black" font-family="Arial" font-size="12.00"  text-anchor="middle">
		<text><tspan font-family="Arial" > 70</tspan></text>
	</g>
</g>
<g fill="none" color="black" stroke="currentColor" stroke-width="1.00" stroke-linecap="butt" stroke-linejoin="miter">
	<path stroke='black'  d='M508.9,446.0 L508.9,437.0 M508.9,18.1 L508.9,27.1  '/>	<g transform="translate(508.9,467.9)" stroke="none" fill="black" font-family="Arial" font-size="12.00"  text-anchor="middle">
		<text><tspan font-family="Arial" > 80</tspan></text>
	</g>
</g>
<g fill="none" color="black" stroke="currentColor" stroke-width="1.00" stroke-linecap="butt" stroke-linejoin="miter">
	<path stroke='black'  d='M564.7,446.0 L564.7,437.0 M564.7,18.1 L564.7,27.1  '/>	<g transform="translate(564.7,467.9)" stroke="none" fill="black" font-family="Arial" font-size="12.00"  text-anchor="middle">
		<text><tspan font-family="Arial" > 90</tspan></text>
	</g>
</g>
<g fill="none" color="black" stroke="currentColor" stroke-width="1.00" stroke-linecap="butt" stroke-linejoin="miter">
</g>
<g fill="none" color="black" stroke="currentColor" stroke-width="1.00" stroke-linecap="butt" stroke-linejoin="miter">
	<path stroke='black'  d='M62.2,18.1 L62.2,446.0 L615.0,446.0 L615.0,18.1 L62.2,18.1 Z  '/></g>
<g fill="none" color="black" stroke="currentColor" stroke-width="1.00" stroke-linecap="butt" stroke-linejoin="miter">
</g>
	<g id="gnuplot_plot_1" ><title>pages+cached+noexternal+nosvg</title>
<g fill="none" color="black" stroke="currentColor" stroke-width="1.00" stroke-linecap="butt" stroke-linejoin="miter">
	<g transform="translate(279.8,485.9)" stroke="none" fill="black" font-family="Arial" font-size="12.00"  text-anchor="end">
		<text><tspan font-family="Arial" >pages+cached+noexternal+nosvg</tspan></text>
	</g>
</g>
<g fill="none" color="black" stroke="currentColor" stroke-width="1.00" stroke-linecap="butt" stroke-linejoin="miter">
	<path stroke='rgb(148,   0, 211)'  d='M288.1,482.0 L330.3,482.0 M62.2,385.6 L67.8,385.8 L73.4,393.2 L79.0,365.5 L84.5,379.2 L90.1,356.2
		L95.7,378.0 L101.3,391.6 L106.9,356.4 L112.5,382.3 L118.0,397.7 L123.6,73.8 L129.2,378.5 L134.8,312.1
		L140.4,251.7 L146.0,346.2 L151.5,389.6 L157.1,349.6 L162.7,386.6 L168.3,433.3 L173.9,378.2 L179.5,399.6
		L185.0,402.9 L190.6,375.0 L196.2,394.2 L201.8,383.5 L207.4,378.7 L213.0,112.2 L218.5,412.5 L224.1,416.9
		L229.7,418.8 L235.3,357.1 L240.9,395.4 L246.5,214.9 L252.1,396.3 L257.6,414.8 L263.2,64.5 L268.8,340.0
		L274.4,391.3 L280.0,408.4 L285.6,367.4 L291.1,382.0 L296.7,393.4 L302.3,398.2 L307.9,368.7 L313.5,403.2
		L319.1,401.5 L324.6,392.0 L330.2,383.9 L335.8,351.4 L341.4,383.5 L347.0,393.9 L352.6,379.2 L358.1,397.0
		L363.7,396.5 L369.3,378.0 L374.9,394.1 L380.5,370.9 L386.1,404.9 L391.6,411.9 L397.2,391.6 L402.8,409.9
		L408.4,384.4 L414.0,394.6 L419.6,390.4 L425.1,380.9 L430.7,395.1 L436.3,384.4 L441.9,369.5 L447.5,374.0
		L453.1,437.8 L458.7,396.1 L464.2,383.3 L469.8,375.9 L475.4,26.3 L481.0,402.7 L486.6,355.2 L492.2,387.0
		L497.7,334.4 L503.3,361.9 L508.9,313.0 L514.5,386.4 L520.1,387.0 L525.7,392.0 L531.2,380.1 L536.8,362.4
		L542.4,389.0 L548.0,382.0 L553.6,393.7 L559.2,345.7 L564.7,366.9 L570.3,406.1 L575.9,64.5 L581.5,385.8
		L587.1,393.7 L592.7,359.0 L598.2,307.3 L603.8,408.9 L609.4,354.0 L615.0,378.0  '/></g>
	</g>
	<g id="gnuplot_plot_2" ><title>pages+cached+noexternal+noimg</title>
<g fill="none" color="black" stroke="currentColor" stroke-width="1.00" stroke-linecap="butt" stroke-linejoin="miter">
	<g transform="translate(579.3,485.9)" stroke="none" fill="black" font-family="Arial" font-size="12.00"  text-anchor="end">
		<text><tspan font-family="Arial" >pages+cached+noexternal+noimg</tspan></text>
	</g>
</g>
<g fill="none" color="black" stroke="currentColor" stroke-width="1.00" stroke-linecap="butt" stroke-linejoin="miter">
	<path stroke='rgb(  0, 158, 115)'  d='M587.6,482.0 L629.8,482.0 M62.2,397.5 L67.8,408.7 L73.4,313.7 L79.0,389.7 L84.5,360.9 L90.1,369.9
		L95.7,374.0 L101.3,382.1 L106.9,369.9 L112.5,394.1 L118.0,376.6 L123.6,391.8 L129.2,394.6 L134.8,383.0
		L140.4,386.8 L146.0,389.0 L151.5,382.8 L157.1,352.8 L162.7,383.9 L168.3,382.8 L173.9,381.6 L179.5,383.9
		L185.0,409.3 L190.6,393.5 L196.2,393.9 L201.8,388.3 L207.4,395.4 L213.0,381.6 L218.5,386.4 L224.1,403.7
		L229.7,386.1 L235.3,366.9 L240.9,378.3 L246.5,422.7 L252.1,396.0 L257.6,195.5 L263.2,370.9 L268.8,386.4
		L274.4,381.8 L280.0,417.0 L285.6,360.7 L291.1,395.8 L296.7,395.8 L302.3,414.4 L307.9,383.0 L313.5,389.0
		L319.1,361.9 L324.6,363.6 L330.2,406.3 L335.8,224.2 L341.4,365.2 L347.0,375.7 L352.6,390.1 L358.1,375.7
		L363.7,310.9 L369.3,315.8 L374.9,382.6 L380.5,384.9 L386.1,358.1 L391.6,391.8 L397.2,395.4 L402.8,352.4
		L408.4,319.7 L414.0,399.4 L419.6,406.1 L425.1,392.2 L430.7,381.1 L436.3,363.5 L441.9,272.1 L447.5,339.6
		L453.1,396.3 L458.7,355.2 L464.2,413.1 L469.8,386.1 L475.4,415.7 L481.0,387.3 L486.6,393.2 L492.2,376.9
		L497.7,397.0 L503.3,364.7 L508.9,407.7 L514.5,381.6 L520.1,383.7 L525.7,378.7 L531.2,228.0 L536.8,356.0
		L542.4,415.8 L548.0,401.7 L553.6,313.4 L559.2,393.4 L564.7,376.3 L570.3,376.9 L575.9,390.1 L581.5,403.4
		L587.1,393.0 L592.7,398.0 L598.2,81.3 L603.8,399.6 L609.4,370.6 L615.0,391.5  '/></g>
	</g>
<g fill="none" color="#FFFFFF" stroke="rgb(  0, 158, 115)" stroke-width="2.00" stroke-linecap="butt" stroke-linejoin="miter">
</g>
<g fill="none" color="black" stroke="currentColor" stroke-width="2.00" stroke-linecap="butt" stroke-linejoin="miter">
</g>
<g fill="none" color="black" stroke="black" stroke-width="1.00" stroke-linecap="butt" stroke-linejoin="miter">
</g>
<g fill="none" color="black" stroke="currentColor" stroke-width="1.00" stroke-linecap="butt" stroke-linejoin="miter">
	<path stroke='black'  d='M62.2,18.1 L62.2,446.0 L615.0,446.0 L615.0,18.1 L62.2,18.1 Z  '/></g>
<g fill="none" color="black" stroke="currentColor" stroke-width="1.00" stroke-linecap="butt" stroke-linejoin="miter">
</g>
</g>
</svg>
